flaticon/outdoor/gasoline.svg

<svg xmlns="http://www.w3.org/2000/svg" width="32" height="32" viewBox="0 0 24 24">
    <path d="M 17.28125 9.882812 L 16.71875 9.316406 L 14.433594 11.601562 L 9.566406 11.601562 L 7.28125 9.316406 L 6.71875 9.882812 L 9 12.164062 L 9 17.035156 L 6.71875 19.316406 L 7.28125 19.882812 L 9.566406 17.601562 L 14.433594 17.601562 L 16.71875 19.882812 L 17.28125 19.316406 L 15 17.035156 L 15 12.164062 Z M 14.199219 16.800781 L 9.800781 16.800781 L 9.800781 12.398438 L 14.199219 12.398438 Z M 14.199219 16.800781"/>
    <path d="M 19.800781 5.199219 L 19.398438 5.199219 L 19.398438 3.601562 L 18.761719 3.601562 L 18.972656 2.882812 L 20.265625 2.15625 C 20.421875 2.0625 20.535156 1.910156 20.578125 1.734375 C 20.625 1.554688 20.597656 1.367188 20.5 1.210938 L 19.976562 0.335938 C 19.882812 0.175781 19.730469 0.0664062 19.550781 0.0195312 C 19.375 -0.0234375 19.1875 0.00390625 19.039062 0.09375 L 17.152344 1.164062 L 16.367188 3.601562 L 15.398438 3.601562 L 15.398438 5.199219 L 13.257812 5.199219 L 11.941406 2.304688 C 11.527344 1.390625 10.609375 0.800781 9.605469 0.800781 L 6.367188 0.800781 C 4.949219 0.800781 3.800781 1.953125 3.800781 3.367188 L 3.800781 5.25 C 3.109375 5.429688 2.601562 6.054688 2.601562 6.800781 L 2.601562 22.402344 C 2.601562 23.28125 3.316406 24 4.199219 24 L 19.800781 24 C 20.683594 24 21.398438 23.28125 21.398438 22.402344 L 21.398438 6.800781 C 21.398438 5.917969 20.683594 5.199219 19.800781 5.199219 Z M 17.820312 1.707031 L 19.347656 0.839844 L 19.757812 1.523438 L 18.296875 2.34375 L 17.925781 3.601562 L 17.207031 3.601562 Z M 16.199219 4.398438 L 18.601562 4.398438 L 18.601562 5.199219 L 16.199219 5.199219 Z M 20.601562 22.398438 C 20.601562 22.839844 20.242188 23.199219 19.800781 23.199219 L 4.199219 23.199219 C 3.757812 23.199219 3.398438 22.839844 3.398438 22.398438 L 3.398438 6.800781 C 3.398438 6.359375 3.757812 6 4.199219 6 L 4.601562 6 L 4.601562 3.367188 C 4.601562 2.390625 5.390625 1.601562 6.367188 1.601562 L 9.605469 1.601562 C 10.296875 1.601562 10.925781 2.007812 11.214844 2.636719 L 12.742188 6 L 19.800781 6 C 20.242188 6 20.601562 6.359375 20.601562 6.800781 Z M 20.601562 22.398438"/>
    <path d="M 10.445312 3.175781 C 10.25 2.707031 9.796875 2.398438 9.289062 2.398438 L 6.648438 2.398438 C 5.960938 2.398438 5.398438 2.960938 5.398438 3.648438 L 5.398438 6 L 11.59375 6 Z M 6.199219 5.199219 L 6.199219 3.648438 C 6.199219 3.402344 6.402344 3.199219 6.648438 3.199219 L 9.289062 3.199219 C 9.472656 3.199219 9.632812 3.308594 9.703125 3.480469 L 10.40625 5.199219 Z M 6.199219 5.199219"/>
</svg>

<svg xmlns="http://www.w3.org/2000/svg" width="32" height="32" viewBox="0 0 24 24">
    <path d="M17.281 9.883l-.562-.567-2.285 2.286H9.566L7.281 9.316l-.562.567L9 12.164v4.871l-2.281 2.281.562.567 2.285-2.281h4.868l2.285 2.28.562-.566L15 17.036v-4.872zM14.2 16.8H9.801v-4.403h4.398zm0 0"/>
    <path d="M19.8 5.2h-.402V3.601h-.636l.21-.72 1.294-.726a.683.683 0 0 0 .312-.422.665.665 0 0 0-.078-.523l-.523-.875a.686.686 0 0 0-.938-.242l-1.887 1.07-.785 2.438h-.969v1.597h-2.14L11.94 2.305A2.569 2.569 0 0 0 9.605.8H6.367a2.568 2.568 0 0 0-2.566 2.566V5.25c-.692.18-1.2.805-1.2 1.55v15.602A1.6 1.6 0 0 0 4.2 24h15.602a1.6 1.6 0 0 0 1.597-1.598V6.801a1.6 1.6 0 0 0-1.597-1.602zm-1.98-3.493L19.348.84l.41.683-1.461.82-.371 1.259h-.719zM16.2 4.398h2.402V5.2h-2.403zm4.402 18c0 .442-.36.801-.801.801H4.199c-.441 0-.8-.36-.8-.8V6.8c0-.442.359-.801.8-.801h.403V3.367c0-.976.789-1.765 1.765-1.765h3.238c.692 0 1.32.406 1.61 1.035L12.742 6h7.059c.441 0 .8.36.8.8zm0 0"/>
    <path d="M10.445 3.176a1.254 1.254 0 0 0-1.156-.778H6.65c-.688 0-1.25.563-1.25 1.25V6h6.195zM6.2 5.199V3.65c0-.247.203-.45.45-.45h2.64c.184 0 .344.11.414.281l.703 1.72zm0 0"/>
</svg>
